X:3
T:Straddle the Donkey
R:jig
D:Snug in the Blanket,P.O'Brien,J.Gans,D.Sproule
O:Alabama Old Time fiddler, James Bryan
Z:Paul Stewart Cranford (P.S.C.), <http://www.cranfordpub.com>
L:1/8
Q:333
M:6/8
K:Ador
G|EAB cAd|BGG G2 E|ABA agf|gee e2 f|
gba gfe|edB c2 d|ege c2 d|ecA A2:|
|:z|aea abc'|bag gab|aba agf|gee e2 f|
gba gfe|edB c2 d|ege e2 d|ecA A2:|
